%
O4000 ( 4000/RAZEFRD12T12 )
N10 ( ----------------------------------- )
N11 ( NOTE SETUP POSITION IS -  G56 )
N12 ( ----------------------------------- )
N13 ( PROGRAM NAME  :  4000 )
N14 ( PROGRAM DATE       : DATE 15/10/24  TIME -1:54:06 PM )
N15 ( PROGRAMMED BY      :  VASI )
N16 ( POWERMILL CB       :  2020008.0 )
N17 ( DPP VERSION        :  2020.0.0.5098 )
N18 ( POSTPROCESSOR FILE        :  HAAS_3X )
N19 ( OUTPUT WORKPLANE   :  BACFIXOPRITOR )
N20( TOOL LIST )
N21(-----------------------------------------------------------------------------)
N22(TOOL NUMBER|TOOL NAME|TOOL DIAMETER|TOOL TIP RADIUS|TOOL LENGTH|TOOL OVERHANG)
N23(-----------------------------------------------------------------------------)
N24(12         |FRD12T12 |12.0         |0.0            |247.355    |         60.0)
N25(-----------------------------------------------------------------------------)
N26 (  ESTIMATED CUTTING TIME =  0 HOURS 0 MIN 27 SEC )
N27 G0 G90  G94 G21
N28 G17 G80 G40
N29 G0 G91 G28 Z0.0
N30 ( TOOL TYPE     : ENDMILL )
N31 ( TOOL ID.      :  "FRD12T12" )
N32 ( TOOL DIAMETER :  12.0  )
N33 ( TOOL LENGTH   :  247.355  )
N34 T12 M6
N35 S1500  M3 
N36 G90 G56
N37 (  TOOLPATH  :  4000/RAZEFRD12T12  )
N38 (  ALLOWANCE :  0.0  )
N39 (  WORKPLANE :  BACFIXOPRITOR )
N40 G0 X-5.856 Y-14.146
N41 G43 Z25.0 H12
N42 M8 
N43 Z5.0
N44 G1 Z-14.997 F200. 
N45 X0.142 Y-13.995 F400. 
N46 X0.632 Y-13.983
N47 X1.121 Y-13.952
N48 X1.611 Y-13.902
N49 X2.101 Y-13.837
N50 X2.779 Y-13.717
N51 X3.08 Y-13.654
N52 X3.57 Y-13.535
N53 X4.06 Y-13.394
N54 X4.574 Y-13.227
N55 X5.039 Y-13.057
N56 X5.529 Y-12.857
N57 X6.018 Y-12.637
N58 X6.508 Y-12.392
N59 X6.998 Y-12.122
N60 X7.594 Y-11.758
N61 X7.977 Y-11.501
N62 X8.467 Y-11.146
N63 X8.956 Y-10.757
N64 X9.489 Y-10.289
N65 X9.994 Y-9.799
N66 X10.426 Y-9.338
N67 X10.915 Y-8.759
N68 X11.405 Y-8.114
N69 X11.593 Y-7.84
N70 X11.895 Y-7.376
N71 X12.199 Y-6.861
N72 X12.462 Y-6.371
N73 X12.702 Y-5.882
N74 X12.917 Y-5.392
N75 X13.11 Y-4.902
N76 X13.364 Y-4.165
N77 X13.568 Y-3.433
N78 X13.684 Y-2.944
N79 X13.78 Y-2.454
N80 X13.858 Y-1.964
N81 X13.917 Y-1.474
N82 X13.961 Y-0.985
N83 X13.988 Y-0.495
N84 X13.998 Y-0.005
N85 X14.129 Y5.993
N86 G0 Z25.0
N87 X165.871
N88 Z5.0
N89 G1 Z-14.997 F200. 
N90 X166.002 Y-0.005 F400. 
N91 X166.012 Y-0.495
N92 X166.039 Y-0.985
N93 X166.083 Y-1.474
N94 X166.142 Y-1.964
N95 X166.22 Y-2.454
N96 X166.316 Y-2.944
N97 X166.432 Y-3.433
N98 X166.636 Y-4.165
N99 X166.89 Y-4.902
N100 X167.083 Y-5.392
N101 X167.298 Y-5.882
N102 X167.616 Y-6.523
N103 X167.801 Y-6.861
N104 X168.105 Y-7.376
N105 X168.407 Y-7.84
N106 X168.754 Y-8.33
N107 X169.133 Y-8.82
N108 X169.574 Y-9.338
N109 X170.064 Y-9.858
N110 X170.554 Y-10.329
N111 X171.044 Y-10.757
N112 X171.533 Y-11.146
N113 X172.023 Y-11.501
N114 X172.513 Y-11.826
N115 X173.002 Y-12.122
N116 X173.492 Y-12.392
N117 X174.198 Y-12.737
N118 X174.471 Y-12.857
N119 X174.961 Y-13.057
N120 X175.451 Y-13.235
N121 X175.94 Y-13.394
N122 X176.43 Y-13.535
N123 X176.92 Y-13.654
N124 X177.41 Y-13.754
N125 X177.899 Y-13.837
N126 X178.389 Y-13.902
N127 X178.879 Y-13.952
N128 X179.368 Y-13.983
N129 X179.858 Y-13.995
N130 X185.856 Y-14.146
N131 G0 Z25.0
N132 M9 
N133 M9 
N134 M5
N135 G0 G91 G28 Z0
N136 G0 G91 G28 Y0
N137 M30
%